svgs/sharp-solid/folder-tree.svg

<svg xmlns="http://www.w3.org/2000/svg" viewBox="0 0 576 512"><!--! Font Awesome Pro 6.6.0 by @fontawesome - https://fontawesome.com License - https://fontawesome.com/license (Commercial License) Copyright 2024 Fonticons, Inc. --><path d="M64 32L64 0 0 0 0 32l0 96L0 416l0 32 32 0 224 0 0-64L64 384l0-224 192 0 0-64L64 96l0-64zM288 224l288 0 0-192L432 32 400 0 288 0l0 224zm0 288l288 0 0-192-144 0-32-32-112 0 0 224z"/></svg>

<svg xmlns="http://www.w3.org/2000/svg" viewBox="0 0 576 512"><!--! Font Awesome Pro 6.4.2 by @fontawesome - https://fontawesome.com License - https://fontawesome.com/license (Commercial License) Copyright 2023 Fonticons, Inc. --><path d="M64 32V0H0V32v96V416v32H32 256V384H64V160H256V96H64V32zM288 224H576V32H432L400 0H288V224zm0 288H576V320H432l-32-32H288V512z"/></svg>
